X:305
T:Girl that Broke My Heart
R:reel
H:Cf #494
D:Joe Holmes & Len Graham: After Dawning
D:Kevin Burke: If the Cap Fits.
Z:id:hn-reel-147
M:C|
L:1/8
Q:1/4=200
K:C
dc|:_BG~G2 FDCE|DGG^F GA_Bc|defd cAGF|DFFE F2dc|
_BGFD EC~C2|DGG^F GA_Bc|defd cAGF|[1 DGG^F G2dc:|[2 DGG^F G3D|
|:G2Bd gdBG|F2Ac fcAF|G2Bd gdBd|~c3d cA^FA|
G2Bd gdBG|F2Ac fcAF|GABd cAGF|[1 DGG^F GDE^F:|[2 DGG^F G2dc|
